app/dist/common/images/ningbo-ocean-shipping.svg

<svg height="18" viewBox="0 0 18 18" width="18" xmlns="http://www.w3.org/2000/svg"><path d="m0 0h18v18h-18z" fill="#f0f3fa"/><path d="m2 6v6h1v-2.7l1 2.7h1v-6h-1v2.76l-1-2.76zm3.5.26h1v5.44h-1z" fill="#162b7f"/><path d="m6.94 7h-1.44v-1h1.74c1 0 1.27.88 1.26 1.32v.6c0 .58-.5.8-.73.85.6 0 .72.65.73.97v1.24c0 .82-.5 1.02-.77 1.02h-2.23v-1h1.44c.17 0 .4-.18.4-.37v-1.01c0-.2-.23-.24-.4-.24h-1.44v-.95h1.44c.17 0 .4-.16.4-.35v-.57c0-.2-.23-.51-.4-.51z" fill="#ea501c"/><path d="m10.2 6c-.66 0-1.2.64-1.2 1.43v3.14c0 .8.54 1.43 1.2 1.43h.6c.66 0 1.2-.64 1.2-1.43v-3.14c0-.8-.54-1.43-1.2-1.43zm.3 1c-.28 0-.5.12-.5.28v3.44c0 .16.22.28.5.28s.5-.12.5-.28v-3.44c0-.16-.22-.28-.5-.28z" fill="#ea501c" fill-rule="evenodd"/><path d="m13.86 10.13h-1.36c0 1.63.74 1.87 1.71 1.87s1.79-.3 1.79-1.44c0-1.15-.22-1.38-.55-1.66a7.15 7.15 0 0 0 -1.21-.78c-.38-.2-.38-.57-.38-.74 0-.16.12-.41.38-.41.2 0 .2.27.2.41v.44h1.37v-.72c.02-.37-.3-1.1-1.62-1.1s-1.69.8-1.69 1.2v.62c0 .65.35 1 .51 1.08.22.16.74.54 1.06.73s.54.48.57.6v.4c0 .08-.05.42-.39.42a.39.39 0 0 1 -.39-.35z" fill="#162b7f"/></svg>

<!-- by TradingView --><svg width="18" height="18" viewBox="0 0 18 18" xmlns="http://www.w3.org/2000/svg"><path fill="#F0F3FA" d="M0 0h18v18H0z"/><path d="M2 6v6h1V9.3L4 12h1V6H4v2.76L3 6H2ZM5.5 6.26h1v5.44h-1z" fill="#162B7F"/><path d="M6.94 7H5.5V6h1.74c1 0 1.27.88 1.26 1.32v.6c0 .58-.5.8-.73.85.6 0 .72.65.73.97v1.24C8.5 11.8 8 12 7.73 12H5.5v-1h1.44c.17 0 .4-.18.4-.37V9.62c0-.2-.23-.24-.4-.24H5.5v-.95h1.44c.17 0 .4-.16.4-.35v-.57c0-.2-.23-.51-.4-.51Z" fill="#EA501C"/><path fill-rule="evenodd" d="M10.2 6C9.54 6 9 6.64 9 7.43v3.14c0 .8.54 1.43 1.2 1.43h.6c.66 0 1.2-.64 1.2-1.43V7.43c0-.8-.54-1.43-1.2-1.43h-.6Zm.3 1c-.28 0-.5.12-.5.28v3.44c0 .16.22.28.5.28s.5-.12.5-.28V7.28c0-.16-.22-.28-.5-.28Z" fill="#EA501C"/><path d="M13.86 10.13H12.5c0 1.63.74 1.87 1.71 1.87S16 11.7 16 10.56c0-1.15-.22-1.38-.55-1.66a7.15 7.15 0 0 0-1.21-.78c-.38-.2-.38-.57-.38-.74 0-.16.12-.41.38-.41.2 0 .2.27.2.41v.44h1.37V7.1c.02-.37-.3-1.1-1.62-1.1s-1.69.8-1.69 1.2v.62c0 .65.35 1 .51 1.08.22.16.74.54 1.06.73.32.19.54.48.57.6v.4c0 .08-.05.42-.39.42a.39.39 0 0 1-.39-.35v-.57Z" fill="#162B7F"/></svg>
